X: 40815
T: Trafaelais I Gymru
R: jig
M: 6/8
K: Gmajor
G2 G GBA|GFG E2 F|G2 A FED|GFG E2 D|
G2 G GBA|GFG E2 F|G2 A FED|GFG E2:|
B2 c d2 d|dcB d2 c|B2 c dcB|cBA B2 G|
BcB BAG|ABA AGF|G3- G2 G|
EFE E2 B|BAG A2 B|GFE FED|E3- E2||

